icons/desktop/20/bookmark-20.svg

<svg width="21" height="20" viewBox="0 0 21 20" fill="none" xmlns="http://www.w3.org/2000/svg">
<path fill-rule="evenodd" clip-rule="evenodd" d="M8.05804 1.9828C8.76004 0.222437 11.2517 0.2223 11.9535 1.9828L13.4594 5.76698L18.0317 6.06385C19.8029 6.17834 20.7104 8.3789 19.3617 9.65955C19.0852 9.9225 18.7907 10.188 18.476 10.4525C17.4695 11.2988 16.4897 11.9503 15.6225 12.4525L16.7114 16.723C17.1769 18.5495 15.2255 19.9503 13.6362 19.0599C13.2108 18.8216 12.7738 18.5601 12.3305 18.2709L11.8852 17.9721C11.1858 17.492 10.562 17.0025 10.0053 16.5277C9.44881 17.0029 8.82431 17.4923 8.12542 17.9721C7.52841 18.3819 6.94302 18.7418 6.37542 19.0599C4.78611 19.9504 2.83379 18.5495 3.29925 16.723L4.38714 12.4525C3.52015 11.9505 2.54107 11.2986 1.53558 10.4525L1.5346 10.4515C1.22148 10.1875 0.926665 9.92371 0.649835 9.66151C-0.701721 8.38053 0.207173 6.17841 1.97894 6.06385L6.55023 5.76698L8.05804 1.9828ZM10.3276 2.63123C10.2114 2.33989 9.79918 2.33989 9.68304 2.63123L7.9721 6.92811C7.84722 7.24191 7.55325 7.45601 7.21624 7.47791L2.09222 7.80995C1.9423 7.81963 1.83091 7.90925 1.77972 8.04432C1.72987 8.176 1.7547 8.29775 1.85296 8.391C2.106 8.63067 2.37582 8.87186 2.66253 9.11366C3.79986 10.0707 4.89872 10.7579 5.8139 11.2465C6.16893 11.4362 6.34873 11.8436 6.24944 12.2338L4.99554 17.1547C4.92568 17.43 5.2175 17.703 5.51995 17.5336C6.04415 17.2398 6.58442 16.9077 7.13519 16.5297C7.83283 16.0508 8.45242 15.5633 8.99652 15.0912L9.00628 15.0834C9.59065 14.584 10.4321 14.5862 11.0141 15.0902C11.5599 15.563 12.1782 16.0511 12.8754 16.5297C13.4246 16.9073 13.9669 17.2395 14.4916 17.5336C14.7939 17.7026 15.0857 17.4308 15.016 17.1556L13.7612 12.2338C13.6619 11.8435 13.8424 11.4361 14.1977 11.2465C15.1125 10.7581 16.2106 10.0708 17.3491 9.11366L17.766 8.75135C17.9006 8.63102 18.031 8.51146 18.1567 8.39198L18.1576 8.391C18.2554 8.298 18.2809 8.17638 18.2309 8.04432C18.1796 7.90885 18.0683 7.81968 17.9194 7.80995L12.7953 7.47791C12.4583 7.45607 12.1634 7.24196 12.0385 6.92811L10.3276 2.63123Z" fill="black"/>
</svg>

<!-- This Source Code Form is subject to the terms of the Mozilla Public
   - License, v. 2.0. If a copy of the MPL was not distributed with this
   - file, You can obtain one at http://mozilla.org/MPL/2.0/. -->
<svg xmlns="http://www.w3.org/2000/svg" width="21" height="20" fill="context-fill" fill-opacity="context-fill-opacity" viewBox="0 0 21 20">
    <path fill-rule="evenodd" d="M8.058 1.983c.702-1.76 3.194-1.76 3.896 0l1.505 3.784 4.573.297c1.77.114 2.678 2.315 1.33 3.596q-.415.394-.886.793a20 20 0 0 1-2.853 2l1.088 4.27c.466 1.826-1.485 3.227-3.075 2.337a23 23 0 0 1-1.305-.79l-.446-.298c-.7-.48-1.323-.97-1.88-1.444a22.5 22.5 0 0 1-3.63 2.532c-1.589.89-3.541-.51-3.076-2.337l1.088-4.27a20 20 0 0 1-2.851-2l-.001-.002a21 21 0 0 1-.885-.79C-.702 8.382.207 6.179 1.979 6.065l4.571-.297zm2.27.648a.347.347 0 0 0-.645 0l-1.71 4.297a.88.88 0 0 1-.757.55l-5.124.332c-.15.01-.261.1-.312.234a.3.3 0 0 0 .073.347q.38.36.81.723a18.2 18.2 0 0 0 3.15 2.132c.356.19.536.598.436.988l-1.253 4.92a.35.35 0 0 0 .524.38 21 21 0 0 0 3.477-2.443l.01-.008a1.53 1.53 0 0 1 2.007.007 21 21 0 0 0 3.478 2.444.35.35 0 0 0 .524-.378l-1.255-4.922a.875.875 0 0 1 .437-.988 18.3 18.3 0 0 0 3.151-2.132l.417-.363q.203-.18.39-.359l.002-.001a.3.3 0 0 0 .073-.347.35.35 0 0 0-.312-.234l-5.124-.332a.88.88 0 0 1-.756-.55z" clip-rule="evenodd" />
</svg>
